Origami/32x32/apps/swatchbooker.svg

<svg width="32" height="32" version="1.1" viewBox="0 0 32 32" xmlns="http://www.w3.org/2000/svg">
 <path d="m15.6875 5.38867c-1.590879 0.0963044-3.089187 0.9506015-3.9375 2.4199219l-9.1015625 15.761718c-0.4424433 0.766335-0.6271977 1.602743-0.625 2.429688h7.9765625v4.039062c0.518141-0.383452 0.967934-0.875326 1.310547-1.46875l9.099609-15.761718c1.3573-2.350913 0.518031-5.3591408-1.880859-6.7441408-0.899584-0.519375-1.887269-0.7335639-2.841797-0.6757812z" style="opacity:.2"/>
 <path d="m22.992188 11.957029c-0.946091-0.07508-1.91919 0.123825-2.800782 0.632813l-15.761718 9.099609c-1.5828134 0.913838-2.4296493 2.585148-2.40625 4.310547h7.9765625v4.021484l15.191406-8.771484c2.350913-1.3573 3.129141-4.380407 1.744141-6.779297-0.865625-1.499306-2.366541-2.388539-3.943359-2.513672z" style="opacity:.2"/>
 <rect x="2" y="21" width="28" height="10" rx="4.9" ry="5" style="opacity:.2"/>
 <path d="m7 2c-2.77 0-5 2.1857906-5 4.9003906v18.099609h8v4.003906c1.209127-0.892753 2-2.299819 2-3.904297v-18.199218c0-2.7146-2.23-4.9003906-5-4.9003906z" style="fill:#4f4f4f"/>
 <path d="m7 2c-2.77 0-5 2.1857906-5 4.9003906v1c0-2.7146 2.23-4.9003906 5-4.9003906s5 2.1857906 5 4.9003906v-1c0-2.7146-2.23-4.9003906-5-4.9003906z" style="fill:#ffffff;opacity:.1"/>
 <path d="m15.6875 4.3886719c-1.590879 0.0963044-3.089187 0.9506015-3.9375 2.4199219l-9.1015625 15.761718c-0.4424433 0.766335-0.6271977 1.602743-0.625 2.429688h7.9765625v4.039062c0.518141-0.383452 0.967934-0.875326 1.310547-1.46875l9.099609-15.761718c1.3573-2.3509129 0.518031-5.3591409-1.880859-6.7441409-0.899584-0.519375-1.887269-0.7335639-2.841797-0.6757812z" style="fill:#4d4e99"/>
 <path d="m15.6875 4.3886719c-1.590879 0.0963044-3.089187 0.9506014-3.9375 2.4199219l-9.1015625 15.761718c-0.4424433 0.766335-0.6271977 1.602743-0.625 2.429688h0.1035156c0.0955513-0.490119 0.257559-0.972555 0.5214844-1.429688l9.1015625-15.761718c0.848313-1.4693204 2.346621-2.3236175 3.9375-2.4199219 0.954528-0.0577827 1.942213 0.1564062 2.841797 0.6757812 1.466036 0.8464168 2.34237 2.2995082 2.498047 3.8378907 0.200235-1.885382-0.716125-3.8090976-2.498047-4.8378907-0.899584-0.519375-1.887269-0.7335639-2.841797-0.6757812z" style="fill:#ffffff;opacity:.1"/>
 <path d="m22.992188 10.957031c-0.946091-0.07508-1.91919 0.123825-2.800782 0.632813l-15.761718 9.099609c-1.5828134 0.913838-2.4296493 2.585148-2.40625 4.310547h7.9765625v4.021484l15.191406-8.771484c2.350913-1.3573 3.129141-4.380407 1.744141-6.779297-0.865625-1.499306-2.366541-2.388539-3.943359-2.513672z" style="fill:#e74949"/>
 <path d="m22.279297 10.953125c-0.714141 0.048126-1.426697 0.254978-2.087891 0.636719l-15.761718 9.099609c-1.5828134 0.913838-2.4296493 2.585148-2.40625 4.310547h0.09375c0.2511025-1.348844 1.039603-2.575639 2.3125-3.310547l15.761718-9.099609c0.881592-0.508988 1.854691-0.707893 2.800782-0.632813 1.576818 0.125133 3.077734 1.014366 3.943359 2.513672 0.371943 0.644224 0.577079 1.33353 0.648437 2.023438 0.099003-1.010899-0.095548-2.065807-0.648437-3.023438-0.865625-1.499306-2.366541-2.388539-3.943359-2.513672-0.236523-0.01877-0.474844-0.019948-0.712891-0.003906z" style="fill:#ffffff;opacity:.1"/>
 <rect x="2" y="20" width="28" height="10" rx="4.9" ry="5" style="fill:#ffc255"/>
 <circle cx="7" cy="26" r="2" style="opacity:.2"/>
 <circle cx="7" cy="25" r="2" style="fill:#ffffff"/>
 <path d="m6.9003906 20c-2.7146 0-4.9003906 2.23-4.9003906 5 0 0.16917 0.0094656 0.335243 0.0253906 0.5 0.2448321-2.532982 2.3261866-4.5 4.875-4.5h18.199218c2.548814 0 4.630168 1.967018 4.875 4.5 0.015925-0.164757 0.025391-0.33083 0.025391-0.5 0-2.77-2.185791-5-4.900391-5h-18.199218z" style="fill:#ffffff;opacity:.1"/>
</svg>

<svg xmlns="http://www.w3.org/2000/svg" width="32" height="32" version="1.1" viewBox="0 0 32 32">
 <path style="opacity:0.2" d="M 15.6875,5.38867 C 14.096621,5.4849744 12.598313,6.3392715 11.75,7.8085919 L 2.6484375,23.57031 c -0.4424433,0.766335 -0.6271977,1.602743 -0.625,2.429688 l 7.9765625,0 0,4.039062 c 0.518141,-0.383452 0.967934,-0.875326 1.310547,-1.46875 L 20.410156,12.808592 C 21.767456,10.457679 20.928187,7.4494512 18.529297,6.0644512 17.629713,5.5450762 16.642028,5.3308873 15.6875,5.38867 Z"/>
 <path style="opacity:0.2" d="m 22.992188,11.957029 c -0.946091,-0.07508 -1.91919,0.123825 -2.800782,0.632813 L 4.4296875,21.689451 c -1.5828134,0.913838 -2.4296493,2.585148 -2.40625,4.310547 l 7.9765625,0 0,4.021484 15.191406,-8.771484 c 2.350913,-1.3573 3.129141,-4.380407 1.744141,-6.779297 -0.865625,-1.499306 -2.366541,-2.388539 -3.943359,-2.513672 z"/>
 <rect style="opacity:0.2" width="28" height="10" x="2" y="21" rx="4.9" ry="5"/>
 <path style="fill:#4f4f4f" d="M 7 2 C 4.23 2 2 4.1857906 2 6.9003906 L 2 25 L 10 25 L 10 29.003906 C 11.209127 28.111153 12 26.704087 12 25.099609 L 12 6.9003906 C 12 4.1857906 9.77 2 7 2 z"/>
 <path style="opacity:0.1;fill:#ffffff" d="M 7 2 C 4.23 2 2 4.1857906 2 6.9003906 L 2 7.9003906 C 2 5.1857906 4.23 3 7 3 C 9.77 3 12 5.1857906 12 7.9003906 L 12 6.9003906 C 12 4.1857906 9.77 2 7 2 z"/>
 <path style="fill:#4d4e99" d="M 15.6875 4.3886719 C 14.096621 4.4849763 12.598313 5.3392734 11.75 6.8085938 L 2.6484375 22.570312 C 2.2059942 23.336647 2.0212398 24.173055 2.0234375 25 L 10 25 L 10 29.039062 C 10.518141 28.65561 10.967934 28.163736 11.310547 27.570312 L 20.410156 11.808594 C 21.767456 9.4576811 20.928187 6.4494531 18.529297 5.0644531 C 17.629713 4.5450781 16.642028 4.3308892 15.6875 4.3886719 z"/>
 <path style="opacity:0.1;fill:#ffffff" d="M 15.6875 4.3886719 C 14.096621 4.4849763 12.598313 5.3392733 11.75 6.8085938 L 2.6484375 22.570312 C 2.2059942 23.336647 2.0212398 24.173055 2.0234375 25 L 2.1269531 25 C 2.2225044 24.509881 2.3845121 24.027445 2.6484375 23.570312 L 11.75 7.8085938 C 12.598313 6.3392734 14.096621 5.4849763 15.6875 5.3886719 C 16.642028 5.3308892 17.629713 5.5450781 18.529297 6.0644531 C 19.995333 6.9108699 20.871667 8.3639613 21.027344 9.9023438 C 21.227579 8.0169618 20.311219 6.0932462 18.529297 5.0644531 C 17.629713 4.5450781 16.642028 4.3308892 15.6875 4.3886719 z"/>
 <path style="fill:#e74949" d="M 22.992188 10.957031 C 22.046097 10.881951 21.072998 11.080856 20.191406 11.589844 L 4.4296875 20.689453 C 2.8468741 21.603291 2.0000382 23.274601 2.0234375 25 L 10 25 L 10 29.021484 L 25.191406 20.25 C 27.542319 18.8927 28.320547 15.869593 26.935547 13.470703 C 26.069922 11.971397 24.569006 11.082164 22.992188 10.957031 z"/>
 <path style="opacity:0.1;fill:#ffffff" d="M 22.279297 10.953125 C 21.565156 11.001251 20.8526 11.208103 20.191406 11.589844 L 4.4296875 20.689453 C 2.8468741 21.603291 2.0000382 23.274601 2.0234375 25 L 2.1171875 25 C 2.36829 23.651156 3.1567905 22.424361 4.4296875 21.689453 L 20.191406 12.589844 C 21.072998 12.080856 22.046097 11.881951 22.992188 11.957031 C 24.569006 12.082164 26.069922 12.971397 26.935547 14.470703 C 27.30749 15.114927 27.512626 15.804233 27.583984 16.494141 C 27.682987 15.483242 27.488436 14.428334 26.935547 13.470703 C 26.069922 11.971397 24.569006 11.082164 22.992188 10.957031 C 22.755665 10.938261 22.517344 10.937083 22.279297 10.953125 z"/>
 <rect style="fill:#ffc255" width="28" height="10" x="2" y="20" rx="4.9" ry="5"/>
 <circle style="opacity:0.2" cx="7" cy="26" r="2"/>
 <circle style="fill:#ffffff" cx="7" cy="25" r="2"/>
 <path style="opacity:0.1;fill:#ffffff" d="M 6.9003906 20 C 4.1857906 20 2 22.23 2 25 C 2 25.16917 2.0094656 25.335243 2.0253906 25.5 C 2.2702227 22.967018 4.3515772 21 6.9003906 21 L 25.099609 21 C 27.648423 21 29.729777 22.967018 29.974609 25.5 C 29.990534 25.335243 30 25.16917 30 25 C 30 22.23 27.814209 20 25.099609 20 L 6.9003906 20 z"/>
</svg>
